X:344
T:B344-  Of All the Simple Things We Do
Q:1/4=120
L:1/4
M:6/4
K:D
D|D2EF2G|A2Bc3/2B/A|BcdecA|(d3d2):|c/d/|\
ecAd3/2e/f|B3g3|(fe)de3/2d/e|(A3A2)f|\
g2fe2d|c3/2d/eA2A|B3/2c/decA|(d3d2)|]
